web/ui/src/components/theme/workflow/svgs/screen-normal.svg

<svg height="24" viewBox="0 0 24 24" width="24" xmlns="http://www.w3.org/2000/svg"><g fill="none"><path d="m0 0h24v24h-24z" fill="#000" opacity="0"/><path d="m19.6966825 22h-2.5165877c-.3412322 0-.6398105-.2985782-.6398105-.6398104s.2985783-.6398105.6398105-.6398105h2.5165877c.5545023 0 1.0236966-.4691943 1.0236966-1.0236966v-2.5165877c0-.3412322.2985783-.6398105.6398105-.6398105s.6398104.2985783.6398104.6398105v2.5165877c0 1.2796208-1.0236967 2.3033175-2.3033175 2.3033175zm-15.68309915-7.9960086h5.37942124c.15911052.0014462.31099811.0671418.42058006.182419.11900894.1035646.18585711.2547396.18243022.4125601v5.3318804c.02642413.2276294-.08009527.4502176-.27385169.5722541-.29366975.0813949-.5051292.0813949-.63437837 0-.193808-.1220069-.30040395-.3445875-.27405806-.5722541v-3.895667l-4.55194107 4.5446575c-.23247055.2320986-.60903438.2319396-.8413088-.0003553-.23205262-.232073-.23203607-.6083212.00003696-.8403738l.00030847-.0003082 4.55979271-4.5527049h-3.96703167c-.22750405.0264463-.44999946-.080061-.5722613-.2739383-.12196515-.1937819-.12196515-.4404493 0-.6342312.12226184-.1938773.34475725-.3003846.5722613-.2739383zm16.56504045-10.58201903c.2327515.23308084.2325729.61068539-.000399.84354594l-4.5504489 4.54827392h3.975723c.3007023.0350348.5275733.29002179.5275733.59310388 0 .3030821-.226871.5582764-.5275733.59310389h-5.3274357c-.1594505-.00136746-.311532-.06749235-.4214796-.18325894-.1222424-.10239779-.1922868-.25430914-.190886-.41399108v-5.35016605h-.0636976c.034951-.30100904.2897414-.52821696.5925118-.52821696s.557354.22720792.5923049.52821696v3.9093859l4.5503128-4.54073971c.233153-.23266255.6107511-.23233027.8434943.00074225zm-13.75871857-1.42197237c.34123221 0 .63981042.29857821.63981042.63981043 0 .34123221-.29857821.63981042-.63981042.63981042h-2.5165877c-.55450237 0-1.02369668.46919431-1.02369668 1.02369668v2.5165877c0 .34123221-.29857821.63981042-.63981042.63981042-.34123222 0-.63981043-.29857821-.63981043-.63981042v-2.5165877c0-1.27962085 1.02369668-2.30331753 2.30331753-2.30331753z" fill="#526579"/></g></svg>

<?xml version="1.0" encoding="UTF-8"?>
<svg width="24px" height="24px" viewBox="0 0 24 24" version="1.1" xmlns="http://www.w3.org/2000/svg" xmlns:xlink="http://www.w3.org/1999/xlink">
    <title>全屏-放大备份 2</title>
    <g id="页面-1" stroke="none" stroke-width="1" fill="none" fill-rule="evenodd">
        <g id="建木CI-项目详情页（流程/管道图）" transform="translate(-1618.000000, -1079.000000)" fill-rule="nonzero">
            <g id="全屏-放大备份-2" transform="translate(1618.000000, 1079.000000)">
                <rect id="矩形" fill="#000000" opacity="0" x="0" y="0" width="24" height="24"></rect>
                <path d="M19.6966825,22 L17.1800948,22 C16.8388626,22 16.5402843,21.7014218 16.5402843,21.3601896 C16.5402843,21.0189574 16.8388626,20.7203791 17.1800948,20.7203791 L19.6966825,20.7203791 C20.2511848,20.7203791 20.7203791,20.2511848 20.7203791,19.6966825 L20.7203791,17.1800948 C20.7203791,16.8388626 21.0189574,16.5402843 21.3601896,16.5402843 C21.7014218,16.5402843 22,16.8388626 22,17.1800948 L22,19.6966825 C22,20.9763033 20.9763033,22 19.6966825,22 L19.6966825,22 Z M4.01358335,14.0039914 L9.39300459,14.0039914 C9.55211511,14.0054376 9.7040027,14.0711332 9.81358465,14.1864104 C9.93259359,14.289975 9.99944176,14.44115 9.99601487,14.5989705 L9.99601487,19.9308509 C10.022439,20.1584803 9.9159196,20.3810685 9.72216318,20.503105 C9.42849343,20.5844999 9.21703398,20.5844999 9.08778481,20.503105 C8.89397681,20.3810981 8.78738086,20.1585175 8.81372675,19.9308509 L8.81372675,16.0351839 L4.26178568,20.5798414 C4.02931513,20.81194 3.6527513,20.811781 3.42047688,20.5794861 C3.18842426,20.3474131 3.18844081,19.9711649 3.42051384,19.7391123 L3.42082231,19.7388041 L7.98061502,15.1860992 L4.01358335,15.1860992 C3.7860793,15.2125455 3.56358389,15.1060382 3.44132205,14.9121609 C3.3193569,14.718379 3.3193569,14.4717116 3.44132205,14.2779297 C3.56358389,14.0840524 3.7860793,13.9775451 4.01358335,14.0039914 Z M20.5786238,3.42197237 C20.8113753,3.65505321 20.8111967,4.03265776 20.5782248,4.26551831 L16.0277759,8.81379223 L20.0034989,8.81379223 C20.3042012,8.84882703 20.5310722,9.10381402 20.5310722,9.40689611 C20.5310722,9.70997821 20.3042012,9.96517251 20.0034989,10 L14.6760632,10 C14.5166127,9.99863254 14.3645312,9.93250765 14.2545836,9.81674106 C14.1323412,9.71434327 14.0622968,9.56243192 14.0636976,9.40274998 L14.0636976,4.05258393 L14,4.05258393 C14.034951,3.75157489 14.2897414,3.52436697 14.5925118,3.52436697 C14.8952822,3.52436697 15.1498658,3.75157489 15.1848167,4.05258393 L15.1848167,7.96196983 L19.7351295,3.42123012 C19.9682825,3.18856757 20.3458806,3.18889985 20.5786238,3.42197237 Z M6.81990523,2 C7.16113744,2 7.45971565,2.29857821 7.45971565,2.63981043 C7.45971565,2.98104264 7.16113744,3.27962085 6.81990523,3.27962085 L4.30331753,3.27962085 C3.74881516,3.27962085 3.27962085,3.74881516 3.27962085,4.30331753 L3.27962085,6.81990523 C3.27962085,7.16113744 2.98104264,7.45971565 2.63981043,7.45971565 C2.29857821,7.45971565 2,7.16113744 2,6.81990523 L2,4.30331753 C2,3.02369668 3.02369668,2 4.30331753,2 L6.81990523,2 Z" id="形状" fill="#526579"></path>
            </g>
        </g>
    </g>
</svg>
